X: 309
T: Shakin' down the Acorn [3]
B: canberra pickers and fiddlers
B: tunes
M:2/4
L:1/8
R: reel
Q: 1/4=100
K:Amixolydian
V:1 
A>G E/D/E/G/|A>G E/D/E/G/|A>B ~ce|d/c/B/A/ G/A/B/G/:|
|:e>f ee/f/|e/d/B/A/ Ge/f/|"*"gg/a/ ge|d/B/A/G/ E:|
% abcbook-tune_id 63da5934d87fce2aca4f47c8
% abcbook-tune_composer_id 
% abcbook-link-0 https://www.youtube.com/watch?v=nif7m_E3IDA
% abcbook-link-end-at-0 69
% abcbook-boost 0
% abcbook-difficulty 0
% abcbook-tags canberra pickers and fiddlers,old time tunes,© free
% abcbook-tablature 
% abcbook-transpose 
% abcbook-tuning ADAE
% abcbook-lastupdated 1677375261484
% abcbook-src-url https://tunebook.net/scrape/tunes.abc
% abcbook-soundfonts 
% abcbook-repeats 1
%%gchordfont "itim-music,Itim" 20

